;FLAVOR:Marlin
;TIME:4511
;Filament used: 2.39073m
;Layer height: 0.2
;MINX:74.958
;MINY:87.45
;MINZ:0.2
;MAXX:160.049
;MAXY:147.546
;MAXZ:9
;Generated with Cura_SteamEngine 4.8.0
M140 S60
M105
M190 S60
M104 S200
M105
M109 S200
M82 ;absolute extrusion mode
; Ender 3 Custom Start G-code
G92 E0 ; Reset Extruder
G28 ; Home all axes
G1 Z2.0 F3000 ; Move Z Axis up little to prevent scratching of Heat Bed
G1 X0.1 Y20 Z0.3 F5000.0 ; Move to start position
G1 X0.1 Y200.0 Z0.3 F1500.0 E15 ; Draw the first line
G1 X0.4 Y200.0 Z0.3 F5000.0 ; Move to side a little
G1 X0.4 Y20 Z0.3 F1500.0 E30 ; Draw the second line
G92 E0 ; Reset Extruder
G1 Z2.0 F3000 ; Move Z Axis up little to prevent scratching of Heat Bed
G1 X5 Y20 Z0.3 F5000.0 ; Move over to prevent blob squish
G92 E0
G92 E0
G1 F2700 E-5
;LAYER_COUNT:45
;LAYER:0
M107
G0 F6000 X112.165 Y106.051 Z0.2
;TYPE:SKIRT
G1 F2700 E0
G1 F1200 X109.207 Y112.475 E0.23523
G1 X110.991 Y114.26 E0.31916
G1 X111.322 Y113.794 E0.33817
G1 X111.606 Y113.449 E0.35304
G1 X112.138 Y112.865 E0.37931
G1 X112.726 Y112.339 E0.40555
G1 X113.589 Y111.733 E0.44063
G1 X113.779 Y111.618 E0.44801
G1 X114.556 Y111.206 E0.47726
G1 X117.185 Y109.996 E0.57352
G1 X117.427 Y109.495 E0.59203
G1 X117.842 Y108.823 E0.6183
G1 X118.322 Y108.196 E0.64456
G1 X118.864 Y107.622 E0.67082
G1 X119.284 Y107.258 E0.6893
G1 X119.171 Y107.17 E0.69407
G1 X118.598 Y106.627 E0.72032
G1 X118.102 Y106.05 E0.74563
G1 X112.165 Y106.051 E0.9431
G0 F6000 X111.909 Y105.651
G1 F1200 X108.727 Y112.561 E1.19612
G1 X111.041 Y114.875 E1.30496
G1 X111.049 Y114.86 E1.30553
G1 X111.631 Y114.048 E1.33876
G1 X111.915 Y113.703 E1.35362
G1 X112.434 Y113.135 E1.37921
G1 X113.009 Y112.625 E1.40477
G1 X113.796 Y112.075 E1.43671
G1 X113.986 Y111.96 E1.44409
G1 X114.723 Y111.569 E1.47184
G1 X117.478 Y110.3 E1.57273
G1 X117.817 Y109.618 E1.59806
G1 X118.229 Y108.968 E1.62366
G1 X118.706 Y108.365 E1.64923
G1 X119.243 Y107.814 E1.67482
G1 X119.834 Y107.322 E1.70039
G1 X119.926 Y107.256 E1.70416
G1 X119.326 Y106.775 E1.72974
G1 X118.779 Y106.234 E1.75533
G1 X118.3 Y105.65 E1.78045
G1 X111.909 Y105.651 E1.99301
G0 F6000 X111.653 Y105.251
G1 F1200 X108.247 Y112.647 E2.26384
G1 X111.113 Y115.514 E2.39867
G1 X111.139 Y115.526 E2.39962
G1 X111.422 Y115.018 E2.41896
G1 X111.94 Y114.302 E2.44835
G1 X112.224 Y113.957 E2.46322
G1 X112.729 Y113.406 E2.48808
G1 X113.291 Y112.912 E2.51296
G1 X114.003 Y112.417 E2.5418
G1 X114.193 Y112.302 E2.54919
G1 X114.89 Y111.933 E2.57542
G1 X117.795 Y110.595 E2.6818
G1 X117.866 Y110.409 E2.68842
G1 X118.206 Y109.743 E2.71329
G1 X118.615 Y109.116 E2.73819
G1 X119.088 Y108.537 E2.76306
G1 X119.621 Y108.012 E2.78794
G1 X120.206 Y107.546 E2.81282
G1 X120.661 Y107.258 E2.83073
G1 X120.06 Y106.858 E2.85474
G1 X119.486 Y106.379 E2.8796
G1 X118.965 Y105.842 E2.90449
G1 X118.505 Y105.25 E2.92942
G1 X111.653 Y105.251 E3.15732
G0 F6000 X111.397 Y104.851
G1 F1200 X107.767 Y112.733 E3.44595
G1 X110.888 Y115.855 E3.59277
G1 X110.933 Y115.87 E3.59435
G1 X111.331 Y116.052 E3.6089
G1 X111.436 Y115.81 E3.61768
G1 X111.795 Y115.178 E3.64185
G1 X112.248 Y114.556 E3.66745
G1 X112.532 Y114.211 E3.68231
G1 X113.024 Y113.677 E3.70646
G1 X113.572 Y113.2 E3.73062
G1 X114.211 Y112.76 E3.75643
G1 X114.401 Y112.645 E3.76381
G1 X115.058 Y112.296 E3.78856
G1 X118.111 Y110.891 E3.90034
G1 X118.258 Y110.514 E3.9138
G1 X118.595 Y109.871 E3.93794
G1 X119 Y109.268 E3.9621
G1 X119.47 Y108.714 E3.98627
G1 X119.997 Y108.215 E4.0104
G1 X120.577 Y107.776 E4.0346
G1 X121.2 Y107.404 E4.05873
G1 X121.524 Y107.256 E4.07058
G1 X121.435 Y107.22 E4.07377
G1 X120.796 Y106.875 E4.09793
G1 X120.199 Y106.461 E4.12209
G1 X119.651 Y105.985 E4.14623
G1 X119.158 Y105.451 E4.1704
G1 X118.728 Y104.866 E4.19455
G1 X118.719 Y104.85 E4.19516
G1 X111.397 Y104.851 E4.43869
G0 F6000 X111.141 Y104.451
G1 F1200 X107.287 Y112.819 E4.74511
G1 X110.674 Y116.206 E4.90443
G1 X110.807 Y116.25 E4.90909
G1 X111.446 Y116.546 E4.93251
G1 X111.531 Y116.594 E4.93576
G1 X111.813 Y115.949 E4.95917
G1 X112.166 Y115.34 E4.98258
G1 X112.557 Y114.811 E5.00446
G1 X112.841 Y114.466 E5.01932
G1 X113.319 Y113.948 E5.04277
G1 X113.852 Y113.489 E5.06616
G1 X114.418 Y113.102 E5.08897
G1 X114.608 Y112.987 E5.09635
G1 X115.225 Y112.659 E5.1196
G1 X118.422 Y111.187 E5.23666
G1 X118.649 Y110.621 E5.25694
G1 X118.983 Y110.001 E5.28036
G1 X119.386 Y109.424 E5.30377
G1 X119.851 Y108.895 E5.3272
G1 X120.373 Y108.423 E5.35061
G1 X120.945 Y108.013 E5.37401
G1 X121.56 Y107.671 E5.39742
G1 X122.062 Y107.462 E5.4155
G1 X122.149 Y107.34 E5.42049
G1 X121.958 Y107.063 E5.43168
G1 X121.915 Y106.983 E5.4347
G1 X121.528 Y106.821 E5.44865
G1 X120.914 Y106.476 E5.47208
G1 X120.343 Y106.065 E5.49548
G1 X119.822 Y105.591 E5.5189
G1 X119.358 Y105.061 E5.54233
G1 X118.958 Y104.482 E5.56574
G1 X118.941 Y104.45 E5.56694
G1 X111.141 Y104.451 E5.82637
G0 F6000 X110.884 Y104.051
G1 F1200 X106.807 Y112.904 E6.15055
G1 X110.46 Y116.557 E6.32238
G1 X110.68 Y116.63 E6.33008
G1 X111.297 Y116.92 E6.35276
G1 X111.761 Y117.209 E6.37094
G1 X111.914 Y116.712 E6.38824
G1 X112.19 Y116.09 E6.41087
G1 X112.538 Y115.504 E6.43354
G1 X112.866 Y115.065 E6.45177
G1 X113.15 Y114.72 E6.46663
G1 X113.613 Y114.22 E6.48929
G1 X114.131 Y113.779 E6.51192
G1 X114.625 Y113.444 E6.53177
G1 X114.815 Y113.329 E6.53916
G1 X115.392 Y113.023 E6.56088
G1 X118.748 Y111.478 E6.68376
G1 X118.781 Y111.359 E6.68787
G1 X119.04 Y110.73 E6.71049
G1 X119.371 Y110.135 E6.73314
G1 X119.77 Y109.583 E6.75579
G1 X120.231 Y109.082 E6.77844
G1 X120.747 Y108.638 E6.80108
G1 X121.312 Y108.258 E6.82373
G1 X121.917 Y107.946 E6.84637
G1 X122.328 Y107.792 E6.86097
G1 X122.399 Y107.669 E6.86569
G1 X122.641 Y107.344 E6.87917
G1 X122.566 Y107.253 E6.88309
G1 X122.197 Y106.681 E6.90573
G1 X122.192 Y106.67 E6.90613
G1 X121.623 Y106.422 E6.92677
G1 X121.035 Y106.078 E6.94943
G1 X120.491 Y105.668 E6.97209
G1 X120 Y105.197 E6.99472
G1 X119.566 Y104.672 E7.01737
G1 X119.197 Y104.1 E7.04001
G1 X119.173 Y104.05 E7.04186
G1 X110.884 Y104.051 E7.31755
G0 F6000 X110.609 Y103.694
G1 F1200 X106.328 Y112.99 E7.65795
G1 X110.243 Y116.906 E7.84212
G1 X110.553 Y117.01 E7.853
G1 X111.146 Y117.294 E7.87487
G1 X111.7 Y117.647 E7.89672
G1 X111.995 Y117.889 E7.90941
G1 X112.101 Y117.459 E7.92414
G1 X112.297 Y116.831 E7.94602
G1 X112.567 Y116.233 E7.96784
G1 X112.908 Y115.671 E7.9897
G1 X113.175 Y115.319 E8.0044
G1 X113.459 Y114.974 E8.01926
G1 X113.906 Y114.493 E8.0411
G1 X114.409 Y114.07 E8.06296
G1 X114.832 Y113.786 E8.07991
G1 X115.022 Y113.671 E8.08729
G1 X115.56 Y113.386 E8.10754
G1 X119.083 Y111.764 E8.23654
G1 X119.174 Y111.446 E8.24754
G1 X119.431 Y110.842 E8.26937
G1 X119.759 Y110.272 E8.29125
G1 X120.154 Y109.747 E8.3131
G1 X120.61 Y109.274 E8.33495
G1 X121.12 Y108.86 E8.3568
G1 X121.676 Y108.511 E8.37863
G1 X122.271 Y108.231 E8.4005
G1 X122.6 Y108.123 E8.41202
G1 X122.785 Y107.812 E8.42406
G1 X123.149 Y107.341 E8.44386
G1 X122.783 Y106.866 E8.4638
G1 X122.47 Y106.341 E8.48413
G1 X122.32 Y106.294 E8.48936
G1 X121.722 Y106.022 E8.51121
G1 X121.161 Y105.68 E8.53306
G1 X120.646 Y105.272 E8.55491
G1 X120.184 Y104.805 E8.57676
G1 X119.783 Y104.285 E8.5986
G1 X119.447 Y103.721 E8.62044
G1 X119.416 Y103.65 E8.62302
G1 X110.67 Y103.651 E8.91391
G1 X110.609 Y103.694 E8.91639
G0 F6000 X110.651 Y103.251
G1 F1200 X110.391 Y103.281 E8.9251
G1 X110.256 Y103.503 E8.93374
G1 X105.848 Y113.076 E9.28427
G1 X110.026 Y117.255 E9.48081
G1 X110.425 Y117.39 E9.49482
G1 X110.993 Y117.667 E9.51584
G1 X111.522 Y118.013 E9.53687
G1 X112.003 Y118.423 E9.55789
G1 X112.269 Y118.715 E9.57102
G1 X112.312 Y118.323 E9.58414
G1 X112.383 Y117.984 E9.59566
G1 X112.489 Y117.554 E9.61039
G1 X112.679 Y116.951 E9.63142
G1 X112.943 Y116.377 E9.65243
G1 X113.278 Y115.841 E9.67346
G1 X113.484 Y115.573 E9.6847
G1 X113.768 Y115.228 E9.69956
G1 X114.2 Y114.767 E9.72057
G1 X114.686 Y114.363 E9.74159
G1 X115.039 Y114.128 E9.7557
G1 X115.229 Y114.013 E9.76308
G1 X115.727 Y113.749 E9.78183
G1 X119.415 Y112.051 E9.91687
G1 X119.567 Y111.535 E9.93476
G1 X119.821 Y110.956 E9.95579
G1 X120.146 Y110.414 E9.97681
G1 X120.537 Y109.917 E9.99784
G1 X120.987 Y109.473 E10.01887
G1 X121.49 Y109.09 E10.0399
G1 X122.037 Y108.773 E10.06093
G1 X122.62 Y108.528 E10.08196
G1 X122.86 Y108.461 E10.09025
G1 X123.17 Y107.958 E10.1099
G1 X123.568 Y107.467 E10.13092
G1 X123.699 Y107.341 E10.13697
G1 X123.378 Y106.995 E10.15266
G1 X123.009 Y106.481 E10.17371
G1 X122.756 Y106.012 E10.19143
G1 X122.397 Y105.894 E10.204
G1 X121.825 Y105.623 E10.22505
G1 X121.293 Y105.283 E10.24605
G1 X120.808 Y104.877 E10.26709
G1 X120.378 Y104.414 E10.28811
G1 X120.009 Y103.9 E10.30915
G1 X119.709 Y103.344 E10.33016
G1 X119.673 Y103.25 E10.33351
G1 X110.651 Y103.251 E10.63359
G0 F6000 X109.899 Y103.321
G1 F1200 X105.367 Y113.162 E10.99394
G1 X109.809 Y117.604 E11.20288
G1 X110.296 Y117.77 E11.21999
G1 X110.839 Y118.039 E11.24014
G1 X111.342 Y118.378 E11.26032
G1 X111.796 Y118.78 E11.28049
G1 X112.193 Y119.238 E11.30065
G1 X112.526 Y119.745 E11.32082
G1 X112.703 Y120.09 E11.33372
G1 X112.749 Y120.191 E11.33741
G1 X112.736 Y120.127 E11.33958
G1 X112.651 Y119.526 E11.35977
G1 X112.645 Y118.92 E11.37993
G1 X112.772 Y118.08 E11.40818
G1 X112.878 Y117.65 E11.42291
G1 X113.061 Y117.072 E11.44308
G1 X113.319 Y116.524 E11.46322
G1 X113.793 Y115.827 E11.49126
G1 X114.077 Y115.482 E11.50612
G1 X114.492 Y115.041 E11.52626
G1 X114.962 Y114.658 E11.54643
G1 X115.246 Y114.471 E11.55774
G1 X115.436 Y114.356 E11.56512
G1 X115.894 Y114.113 E11.58237
G1 X119.763 Y112.331 E11.72405
G1 X119.784 Y112.206 E11.72826
G1 X119.96 Y111.626 E11.74842
G1 X120.211 Y111.074 E11.76859
G1 X120.533 Y110.56 E11.78876
G1 X120.919 Y110.092 E11.80894
G1 X121.363 Y109.68 E11.82909
G1 X121.858 Y109.329 E11.84927
G1 X122.395 Y109.047 E11.86944
G1 X122.964 Y108.838 E11.8896
G1 X123.142 Y108.798 E11.89567
G1 X123.226 Y108.619 E11.90225
G1 X123.555 Y108.109 E11.92243
G1 X123.947 Y107.647 E11.94259
G1 X124.288 Y107.34 E11.95785
G1 X123.977 Y107.064 E11.97168
G1 X123.58 Y106.606 E11.99184
G1 X123.247 Y106.099 E12.01201
G1 X123.05 Y105.691 E12.02708
G1 X122.476 Y105.495 E12.04725
G1 X121.933 Y105.224 E12.06744
G1 X121.43 Y104.885 E12.08761
G1 X120.977 Y104.483 E12.10776
G1 X120.58 Y104.025 E12.12792
G1 X120.247 Y103.518 E12.14809
G1 X119.983 Y102.972 E12.16826
G1 X119.943 Y102.85 E12.17253
G1 X110.622 Y102.851 E12.48255
G1 X110.29 Y102.889 E12.49367
G1 X110.137 Y102.964 E12.49933
G1 X110.08 Y103.022 E12.50204
G1 X109.899 Y103.321 E12.51366
G0 F6000 X109.546 Y103.131
G1 F1200 X104.888 Y113.247 E12.88408
G1 X109.593 Y117.953 E13.10541
G1 X109.618 Y117.96 E13.10627
G1 X110.166 Y118.149 E13.12555
G1 X110.682 Y118.411 E13.1448
G1 X111.157 Y118.742 E13.16406
G1 X111.583 Y119.136 E13.18336
G1 X111.95 Y119.584 E13.20262
G1 X112.34 Y120.257 E13.22849
G1 X113.807 Y123.441 E13.34509
G1 X114.012 Y123.983 E13.36436
G1 X114.141 Y124.548 E13.38364
G1 X114.191 Y125.125 E13.4029
G1 X114.162 Y125.704 E13.42218
G1 X114.053 Y126.272 E13.44142
G1 X113.866 Y126.821 E13.46071
G1 X113.606 Y127.339 E13.47999
G1 X113.277 Y127.816 E13.49926
G1 X112.886 Y128.243 E13.51852
G1 X112.44 Y128.612 E13.53777
G1 X111.826 Y128.97 E13.56141
G1 X111.78 Y129.55 E13.58076
G1 X111.676 Y130.203 E13.60275
G1 X111.214 Y132.118 E13.66827
G1 X111.008 Y132.749 E13.69035
G1 X110.249 Y134.57 E13.75597
G1 X109.945 Y135.161 E13.77807
G1 X108.906 Y136.843 E13.84383
G1 X108.516 Y137.376 E13.8658
G1 X107.231 Y138.869 E13.93131
G1 X106.76 Y139.336 E13.95337
G1 X105.252 Y140.611 E14.01905
G1 X104.711 Y141 E14.04122
G1 X103.023 Y142.019 E14.1068
G1 X102.435 Y142.313 E14.12866
G1 X100.604 Y143.058 E14.19441
G1 X99.968 Y143.26 E14.2166
G1 X98.05 Y143.704 E14.28208
G1 X97.397 Y143.802 E14.30405
G1 X95.428 Y143.94 E14.3697
G1 X94.764 Y143.934 E14.39178
G1 X92.797 Y143.76 E14.45746
G1 X92.142 Y143.649 E14.47956
G1 X90.23 Y143.168 E14.54513
G1 X89.604 Y142.957 E14.5671
G1 X87.791 Y142.182 E14.63268
G1 X87.202 Y141.873 E14.6548
G1 X85.53 Y140.819 E14.72054
G1 X84.999 Y140.422 E14.74259
G1 X83.516 Y139.12 E14.80823
G1 X83.055 Y138.646 E14.83022
G1 X81.795 Y137.128 E14.89584
G1 X81.412 Y136.585 E14.91794
G1 X80.409 Y134.89 E14.98345
G1 X80.118 Y134.294 E15.0055
G1 X79.392 Y132.456 E15.07123
G1 X79.198 Y131.824 E15.09322
G1 X78.77 Y129.898 E15.15884
G1 X78.678 Y129.241 E15.18091
G1 X78.559 Y127.274 E15.24645
G1 X78.571 Y126.612 E15.26847
G1 X78.763 Y124.645 E15.33421
G1 X78.879 Y123.991 E15.3563
G1 X79.377 Y122.085 E15.42182
G1 X79.595 Y121.458 E15.4439
G1 X80.388 Y119.652 E15.5095
G1 X80.702 Y119.069 E15.53153
G1 X81.771 Y117.407 E15.59725
G1 X82.172 Y116.88 E15.61928
G1 X83.485 Y115.411 E15.68481
G1 X83.965 Y114.952 E15.7069
G1 X85.499 Y113.704 E15.77267
G1 X86.044 Y113.328 E15.79469
G1 X87.747 Y112.341 E15.86016
G1 X88.345 Y112.055 E15.88221
G1 X90.186 Y111.347 E15.94781
G1 X90.821 Y111.159 E15.96984
G1 X92.754 Y110.748 E16.03557
G1 X93.412 Y110.661 E16.05764
G1 X93.53 Y110.655 E16.06157
G1 X100.629 Y95.239 E16.62606
G1 X100.858 Y94.81 E16.64224
G1 X101.217 Y94.221 E16.66518
G1 X101.552 Y93.748 E16.68446
G1 X101.799 Y93.472 E16.69678
G1 X102.27 Y92.99 E16.71919
G1 X102.703 Y92.604 E16.73848
G1 X103.008 Y92.388 E16.75092
G1 X103.584 Y92.019 E16.77367
G1 X104.093 Y91.741 E16.79296
G1 X104.452 Y91.595 E16.80585
G1 X105.101 Y91.366 E16.82874
G1 X105.66 Y91.212 E16.84802
G1 X106.021 Y91.154 E16.86018
G1 X106.693 Y91.077 E16.88268
G1 X107.171 Y91.05 E16.8986
G1 X125.253 Y91.05 E17.50001
G1 X125.731 Y91.077 E17.51594
G1 X126.176 Y91.128 E17.53084
G1 X126.746 Y91.234 E17.55012
G1 X127.093 Y91.34 E17.56219
G1 X127.516 Y91.489 E17.5771
G1 X128.048 Y91.718 E17.59637
G1 X128.37 Y91.903 E17.60872
G1 X128.75 Y92.144 E17.62368
G1 X129.217 Y92.487 E17.64296
G1 X129.466 Y92.716 E17.65421
G1 X129.777 Y93.026 E17.66881
G1 X130.158 Y93.463 E17.6881
G1 X130.378 Y93.782 E17.70098
G1 X130.617 Y94.166 E17.71603
G1 X130.888 Y94.677 E17.73527
G1 X131.012 Y94.99 E17.74646
G1 X131.161 Y95.413 E17.76138
G1 X131.316 Y95.971 E17.78064
G1 X131.374 Y96.344 E17.7932
G1 X131.406 Y96.631 E17.8028
G1 X144.249 Y96.631 E18.22996
G1 X144.827 Y96.671 E18.24923
G1 X145.394 Y96.79 E18.2685
G1 X145.747 Y96.917 E18.28098
G1 X145.894 Y96.855 E18.28629
G1 X146.454 Y96.707 E18.30555
G1 X147.249 Y96.631 E18.33211
G1 X152.249 Y96.631 E18.49841
G1 X152.827 Y96.671 E18.51768
G1 X153.394 Y96.79 E18.53695
G1 X153.939 Y96.986 E18.55622
G1 X154.452 Y97.255 E18.57548
G1 X154.923 Y97.592 E18.59475
G1 X155.343 Y97.991 E18.61401
G1 X155.705 Y98.444 E18.6333
G1 X156 Y98.942 E18.65255
G1 X156.225 Y99.476 E18.67182
G1 X156.373 Y100.036 E18.69109
G1 X156.449 Y100.831 E18.71765
G1 X156.449 Y103.831 E18.81743
G1 X156.409 Y104.409 E18.8367
G1 X156.29 Y104.976 E18.85597
G1 X156.094 Y105.521 E18.87524
G1 X155.825 Y106.034 E18.8945
G1 X155.488 Y106.505 E18.91376
G1 X155.089 Y106.925 E18.93303
G1 X154.636 Y107.287 E18.95232
G1 X154.56 Y107.332 E18.95526
G1 X154.923 Y107.592 E18.97011
G1 X155.343 Y107.991 E18.98938
G1 X155.705 Y108.444 E19.00866
G1 X156 Y108.942 E19.02791
G1 X156.225 Y109.476 E19.04719
G1 X156.373 Y110.036 E19.06645
G1 X156.449 Y110.831 E19.09301
G1 X156.449 Y113.831 E19.19279
G1 X156.409 Y114.409 E19.21206
G1 X156.29 Y114.976 E19.23133
G1 X156.094 Y115.521 E19.2506
G1 X155.825 Y116.034 E19.26986
G1 X155.488 Y116.505 E19.28913
G1 X155.089 Y116.925 E19.30839
G1 X154.636 Y117.287 E19.32768
G1 X154.138 Y117.582 E19.34693
G1 X153.604 Y117.807 E19.36621
G1 X153.044 Y117.955 E19.38547
G1 X152.249 Y118.031 E19.41203
G1 X147.249 Y118.031 E19.57833
G1 X146.671 Y117.991 E19.5976
G1 X146.104 Y117.872 E19.61687
G1 X145.751 Y117.745 E19.62935
